frontend/public/svg/finance/trend-up-square.svg

<svg width="166" height="150" viewBox="0 0 166 150" fill="none" xmlns="http://www.w3.org/2000/svg">
<g clip-path="url(#clip0)">
<path d="M136.782 46.8994H136.716C135.879 46.906 135.041 46.9204 134.204 46.9355H134.097C133.054 46.9532 132.012 46.9717 130.966 46.9717H130.664C120.328 47.0189 110.006 47.7282 99.7612 49.0955C98.9349 49.2012 96.4217 49.5214 96.3095 52.2419C96.2314 54.1735 97.5638 55.5369 99.7881 55.8007C100.892 55.9139 102.003 55.938 103.111 55.8728C107.343 55.6921 111.574 55.5051 115.805 55.3116L116.934 55.2612C119.85 55.1299 122.765 55.0006 125.681 54.8733C125.885 54.8641 126.092 54.8589 126.304 54.8563L91.9455 81.3411L85.5075 75.4412C80.8961 71.2098 76.1284 66.8347 71.4087 62.5623C68.5687 59.9928 66.1138 59.8981 63.4484 62.2577L61.8371 63.6833C55.7082 69.1082 49.3713 74.718 43.1971 80.2981C36.3975 86.4402 29.6844 92.6609 24.5951 97.3938C23.4562 98.4689 22.448 99.6746 21.5911 100.986C21.1485 101.64 20.9603 102.432 21.0622 103.215C21.1641 103.999 21.5491 104.717 22.1445 105.236C22.7571 105.863 23.5934 106.223 24.4705 106.236C25.0338 106.23 25.5871 106.087 26.0825 105.819L26.4887 105.609C27.2068 105.273 27.8849 104.859 28.5103 104.372L30.0061 103.126C33.3994 100.295 36.9075 97.3656 40.2752 94.3832C46.7585 88.6422 53.3362 82.7561 59.6948 77.0631L59.8064 76.9626C62.2637 74.7619 64.7267 72.5586 67.1957 70.352L67.4989 70.5771C67.8822 70.8495 68.2517 71.1416 68.6048 71.452L72.5783 75.1315C77.6682 79.8426 82.9314 84.7147 88.0613 89.5492C90.8639 92.1923 92.9983 92.3708 95.9301 90.2194C96.4007 89.8741 96.8536 89.5053 97.3176 89.1272L97.42 89.0439C97.6917 88.8233 97.9622 88.6028 98.2391 88.3875C108.525 80.4091 118.815 72.4346 129.108 64.4631C129.655 64.0397 130.228 63.6362 130.831 63.2161C130.117 65.9902 129.399 68.7637 128.679 71.5374L128.442 72.451C127.667 75.436 126.896 78.4204 126.128 81.4047L126.04 81.7447C125.766 82.6295 125.613 83.5477 125.586 84.4738C125.608 85.4799 125.951 86.4533 126.564 87.2514C127.177 88.0502 128.029 88.6317 128.996 88.9132C129.962 89.1942 130.993 89.16 131.939 88.8148C132.885 88.4696 133.696 87.8323 134.254 86.9941C134.835 86.0903 135.251 85.0901 135.482 84.0406C137.438 74.9936 139.748 64.249 142.054 53.1556C142.436 51.3271 142.153 49.7702 141.236 48.6531C140.293 47.5058 138.753 46.8994 136.782 46.8994Z" fill="black"/>
<path d="M165.053 90.8592C164.48 77.1325 163.899 65.1439 163.275 54.2119C162.847 46.7139 162.237 36.8479 161.306 27.0199C159.952 12.6789 148.417 2.30024 133.254 1.77911C122.031 1.39253 110.611 1.23107 99.5619 1.07486C96.4115 1.03089 93.2132 1.0579 90.1185 1.08415C85.0418 1.12747 79.7917 1.17276 74.6552 0.899722C62.9866 0.286047 50.6154 0.79996 34.5528 2.5747C24.1039 3.72985 16.241 6.8015 9.80425 12.2425C4.49909 16.7267 1.91313 21.9273 1.90001 28.1429C1.89541 30.144 1.85531 32.1722 1.77983 34.1714C1.7142 35.9317 1.59282 37.7307 1.4773 39.47C1.14739 43.1934 1.05858 46.9342 1.21146 50.6691C1.31035 52.2259 1.41117 53.7831 1.514 55.3404C2.31079 67.5382 3.1352 80.1497 2.29837 92.5972C1.95313 97.731 2.04755 102.967 2.13813 108.027L2.15784 109.147C2.31142 117.833 3.58141 125.467 6.04202 132.485C8.69628 140.058 13.8493 144.663 21.3584 146.171C26.0044 147.138 30.7195 147.735 35.4598 147.957C44.2823 148.317 53.2558 148.517 61.9346 148.711C65.4626 148.79 68.991 148.873 72.5195 148.958H72.532C72.6501 148.957 72.765 148.918 72.8601 148.848H75.6548C77.9848 148.848 80.3174 148.848 82.652 148.848L86.3538 148.854C100.968 148.884 116.076 148.914 130.828 146.601C135.972 145.795 141.981 144.669 147.55 142.431C158.722 137.941 164.751 129.661 165.468 117.823C165.928 110.213 165.582 102.554 165.244 95.1477C165.179 93.7188 165.115 92.2893 165.053 90.8592ZM11.7936 82.5611C11.6098 74.6161 11.2094 66.0706 10.5321 55.6698C9.9978 47.4564 9.67232 36.6281 11.9308 25.6528C11.9832 25.5028 12.0054 25.3441 11.9963 25.1855C11.4713 19.0205 15.876 16.6058 20.5346 14.05L20.6968 13.9614C25.2164 11.4805 30.2215 10.618 34.961 9.94661C45.7486 8.52768 56.6228 7.8697 67.5031 7.9776C72.0364 7.9776 76.5074 8.05236 80.8924 8.1449C88.8656 8.31227 96.9727 8.42128 104.811 8.52695C111.653 8.61819 118.726 8.71401 125.683 8.84725C128.907 8.88663 132.124 9.16203 135.308 9.67102C146.752 11.5777 153.082 19.0185 153.613 31.1896C154.048 41.1804 154.448 51.3393 154.835 61.1666C155.126 68.5443 155.422 75.9222 155.724 83.2995C155.834 85.9596 155.987 88.6618 156.134 91.2733C156.365 95.3754 156.603 99.6167 156.688 103.786C156.787 108.722 156.514 113.768 156.228 118.513C155.808 125.432 151.783 130.346 144.265 133.119C139.661 134.737 134.902 135.873 130.065 136.51C113.77 138.939 97.0462 138.83 80.8753 138.728L78.7383 138.714C77.9002 138.709 77.062 138.711 76.2232 138.714H75.0293C74.9237 138.714 74.82 138.739 74.7254 138.786C74.6316 138.834 74.5495 138.902 74.4872 138.987C70.943 138.897 67.3987 138.809 63.8543 138.725C53.5064 138.47 42.8075 138.207 32.2883 137.861C29.5785 137.698 26.8854 137.325 24.2331 136.746L23.7481 136.653C19.302 135.8 16.3269 133.055 14.9066 128.488C12.7491 121.349 11.6701 113.927 11.705 106.469C11.6814 103.056 11.7299 99.5885 11.7765 96.23C11.8336 91.7498 11.8986 87.1187 11.7936 82.5611Z" fill="black"/>
</g>
<defs>
<clipPath id="clip0">
<rect width="164.741" height="148.989" fill="white" transform="translate(0.951416 0.423828)"/>
</clipPath>
</defs>
</svg>

<svg xmlns="http://www.w3.org/2000/svg" width="166" height="150" fill="none" viewBox="0 0 166 150"><g fill="#000" clip-path="url(#a)"><path d="M136.782 46.9h-.066q-1.256.01-2.512.035h-.107c-1.043.018-2.085.037-3.131.037h-.302a242 242 0 0 0-30.903 2.124c-.826.105-3.34.425-3.451 3.146-.079 1.931 1.254 3.295 3.478 3.559 1.104.113 2.215.137 3.323.072q6.348-.27 12.694-.561l1.129-.05q4.374-.197 8.747-.389.306-.013.623-.017L91.945 81.341l-6.437-5.9c-4.612-4.231-9.38-8.606-14.1-12.879-2.84-2.57-5.294-2.664-7.96-.304l-1.61 1.425c-6.13 5.425-12.467 11.035-18.64 16.615-6.8 6.142-13.514 12.363-18.603 17.096a20 20 0 0 0-3.004 3.592 3.23 3.23 0 0 0 .553 4.25 3.32 3.32 0 0 0 2.327 1 3.5 3.5 0 0 0 1.611-.417l.407-.21a10.6 10.6 0 0 0 2.021-1.237l1.496-1.246c3.393-2.831 6.901-5.76 10.27-8.743a4784 4784 0 0 0 19.419-17.32l.111-.1q3.686-3.301 7.39-6.611l.303.225q.575.41 1.106.875l3.973 3.68c5.09 4.71 10.353 9.583 15.483 14.417 2.803 2.643 4.937 2.822 7.87.67.47-.345.923-.714 1.387-1.092l.102-.083c.272-.22.542-.441.82-.656a51863 51863 0 0 1 30.868-23.925c.547-.423 1.12-.827 1.723-1.247a4167 4167 0 0 1-2.152 8.321l-.237.914q-1.162 4.478-2.314 8.954l-.088.34a10.2 10.2 0 0 0-.454 2.729 4.731 4.731 0 0 0 8.668 2.52 9.1 9.1 0 0 0 1.228-2.953 3967 3967 0 0 0 6.572-30.885c.382-1.829.099-3.386-.818-4.503-.943-1.147-2.483-1.754-4.454-1.754"/><path d="M165.053 90.86c-.573-13.728-1.154-25.716-1.778-36.648-.428-7.498-1.038-17.364-1.969-27.192-1.354-14.341-12.889-24.72-28.052-25.24-11.223-.387-22.643-.549-33.692-.705-3.15-.044-6.349-.017-9.443.01-5.077.042-10.327.088-15.464-.185C62.987.286 50.615.8 34.553 2.575 24.103 3.73 16.24 6.802 9.804 12.243c-5.305 4.484-7.89 9.684-7.904 15.9a173 173 0 0 1-.12 6.028c-.066 1.76-.187 3.56-.303 5.299a87 87 0 0 0-.266 11.2q.15 2.334.303 4.67c.797 12.198 1.621 24.81.784 37.257-.345 5.134-.25 10.37-.16 15.43l.02 1.12c.153 8.686 1.423 16.32 3.884 23.338 2.654 7.573 7.807 12.178 15.316 13.686a90 90 0 0 0 14.102 1.786c8.822.36 17.796.56 26.475.754q5.292.119 10.584.247h.013a.56.56 0 0 0 .328-.11h9.792l3.702.006c14.614.03 29.722.06 44.474-2.253 5.144-.806 11.153-1.932 16.722-4.17 11.172-4.49 17.201-12.77 17.918-24.608.46-7.61.114-15.269-.224-22.675a2014 2014 0 0 1-.191-4.289M11.793 82.56c-.183-7.945-.584-16.49-1.26-26.891-.535-8.214-.86-19.042 1.398-30.017.052-.15.074-.309.065-.467-.525-6.166 3.88-8.58 8.539-11.136l.162-.089c4.52-2.48 9.525-3.343 14.264-4.014a232 232 0 0 1 32.542-1.97c4.533 0 9.004.075 13.39.168 7.973.167 16.08.276 23.918.382 6.842.091 13.915.187 20.872.32 3.224.04 6.441.315 9.625.824 11.444 1.907 17.774 9.348 18.305 21.519.435 9.99.835 20.15 1.222 29.977q.436 11.066.889 22.132c.11 2.66.263 5.363.41 7.974.231 4.102.469 8.344.554 12.513.099 4.936-.174 9.982-.46 14.727-.42 6.919-4.445 11.833-11.963 14.606a70.7 70.7 0 0 1-14.2 3.391c-16.295 2.429-33.019 2.32-49.19 2.218l-2.137-.014q-1.257-.006-2.515 0H75.03a.68.68 0 0 0-.542.273q-5.316-.136-10.633-.262c-10.348-.255-21.046-.518-31.566-.864a52.6 52.6 0 0 1-8.055-1.115l-.485-.093c-4.446-.853-7.421-3.598-8.841-8.165a74.9 74.9 0 0 1-3.202-22.019c-.024-3.413.025-6.88.072-10.239.057-4.48.122-9.111.017-13.669"/></g><defs><clipPath id="a"><path fill="#fff" d="M.951.424h164.741v148.989H.952z"/></clipPath></defs></svg>
